X:1
T:Title
%%score { 1 | 2 }
L:1/8
M:4/4
K:Bb
V:1 treble nm="Grand Piano"
V:2 bass 
V:1
 z4 z2[Q:1/4=100] [DF]2 | [DB]2 [DA]2 [DG]2 [DF]2 | A2 G2 E3 E | A2 G2 G2 A2 | %4
[M:3/4] [EG]3 [DF] [DF]2 |[M:1/4] [DF]2 |[M:4/4] [DB]2 [DA]2 [DG]2 [DF]2 | d2 c2 B3 [FB] | %8
 [FA]2 G2 F2 d2 |[M:7/8] c3 [DB] [DB]3 |[M:1/8] [DF] |[M:4/4] [DB]2 [FA]2 [EG]3 [EG] | %12
 [=Ec]2 [GB]2 [FA]3 [FA] | [^Fd]2 [Ac]2 [GB]3 [GB] |[M:7/8] [Ge]2 [Gd]2 [Ac]3 |[M:1/8] c | %16
[M:4/4] d2 d2 c2 c2 | B2 [FB]2 [FA]2 [EG]2 | [DF]2 [FB]2 [Fd] [DFB]3 | %19
 [FBd]3 [EFc]- [EFc] [DFB]3 |] %20
V:2
 z4 z2 [B,,B,]2 | [B,,F,]2 [B,,F,]2 [B,,B,]2 [B,,B,]2 | [F,E]2 [F,A,E]2 [F,A,C]3 [F,A,C] | %3
 [F,CE]2 [F,B,E]2 [F,A,E]2 [F,CE]2 |[M:3/4] [B,,B,]3 [B,,B,] [B,,B,]2 |[M:1/4] [B,,B,]2 | %6
[M:4/4] [B,,F,]2 [B,,F,]2 [B,,B,]2 [B,,B,]2 | [B,F]2 [F,A,E]2 [G,B,D]3 [D,B,] | %8
 [D,B,]2 [E,B,E]2 [F,B,D]2 [F,B,F]2 |[M:7/8] [F,A,E]3 [B,,F,] [B,,F,]3 |[M:1/8] [B,,F,] | %11
[M:4/4] [B,,F,]2 [D,B,]2 [E,B,]3 [E,G,] | [C,G,]2 [=E,C]2 [F,C]3 [F,A,] | %13
 [D,A,]2 [^F,D]2 [G,D]3 [G,B,] |[M:7/8] [E,B,]2 [=E,B,]2 [F,A,]3 |[M:1/8][K:treble] [F,A,F] | %16
[M:4/4] [B,F]2 [B,F]2[K:bass] [F,A,F]2 [^F,A,E]2 | [G,B,D]2 [D,B,]2 [E,B,]2 [E,B,]2 | %18
 [F,B,]2 [D,B,]2 [B,,B,] B,,3 | F,3 F,- F, B,,3 |] %20

